src/assets/icons/body-health-fitness,simple,sleep.svg

<svg width="48" height="48" viewBox="0 0 48 48" fill="none" xmlns="http://www.w3.org/2000/svg">
<rect opacity="0.2" x="5" y="5" width="38" height="38" rx="4" fill="black"/>
<path d="M10.0153 28C10.0153 28.5523 10.463 29 11.0153 29H21C21.5523 29 22 28.5523 22 28V27.2109C22 26.6587 21.5523 26.2109 21 26.2109H16.083C15.2746 26.2109 14.8003 25.3015 15.263 24.6386L21.8047 15.2657C21.9219 15.0978 21.9847 14.8981 21.9847 14.6934V14C21.9847 13.4477 21.537 13 20.9847 13H11C10.4477 13 10 13.4477 10 14V14.7891C10 15.3413 10.4477 15.7891 11 15.7891H15.9104C16.7186 15.7891 17.1929 16.6981 16.7307 17.361L10.195 26.7344C10.078 26.9022 10.0153 27.1019 10.0153 27.3064V28Z" fill="black"/>
<path d="M23.0102 31C23.0102 31.5523 23.4579 32 24.0102 32H30.0413C30.5708 32 31 31.5708 31 31.0413C31 30.5118 30.5708 30.0825 30.0413 30.0825H27.6614C26.8595 30.0825 26.3838 29.1861 26.8332 28.522L30.818 22.6343C30.93 22.4688 30.9898 22.2736 30.9898 22.0738V22C30.9898 21.4477 30.5421 21 29.9898 21H23.9587C23.4292 21 23 21.4292 23 21.9587C23 22.4882 23.4292 22.9175 23.9587 22.9175H26.3346C27.1362 22.9175 27.612 23.8135 27.163 24.4776L23.1818 30.3659C23.07 30.5312 23.0102 30.7263 23.0102 30.926V31Z" fill="black"/>
<path d="M32.0064 35.2092C32.0064 35.6459 32.3604 36 32.7972 36H36.3027C36.6878 36 37 35.6878 37 35.3027C37 34.9176 36.6878 34.6055 36.3027 34.6055H35.4741C34.7029 34.6055 34.222 33.7694 34.6097 33.1027L36.8864 29.1882C36.9566 29.0675 36.9936 28.9303 36.9936 28.7907C36.9936 28.354 36.6396 28 36.2029 28H32.6973C32.3122 28 32 28.3122 32 28.6973C32 29.0824 32.3122 29.3945 32.6973 29.3945H33.5235C34.2946 29.3945 34.7755 30.2303 34.3882 30.8969L32.1134 34.8119C32.0433 34.9325 32.0064 35.0696 32.0064 35.2092Z" fill="black"/>
</svg>

<svg xmlns="http://www.w3.org/2000/svg" width="48" height="48" fill="none" viewBox="0 0 48 48">
  <rect width="38" height="38" x="5" y="5" fill="#000" opacity=".2" rx="4"/>
  <path fill="#000" d="M10.015 28a1 1 0 001 1H21a1 1 0 001-1v-.79a1 1 0 00-1-1h-4.917a1 1 0 01-.82-1.571l6.542-9.373a1 1 0 00.18-.573V14a1 1 0 00-1-1H11a1 1 0 00-1 1v.79a1 1 0 001 1h4.91a1 1 0 01.82 1.571l-6.535 9.373a1 1 0 00-.18.572V28zM23.01 31a1 1 0 001 1h6.031a.959.959 0 100-1.918h-2.38a1 1 0 01-.828-1.56l3.985-5.888a1 1 0 00.172-.56V22a1 1 0 00-1-1h-6.031a.959.959 0 100 1.918h2.376a1 1 0 01.828 1.56l-3.981 5.888a1 1 0 00-.172.56V31zM32.006 35.21c0 .436.354.79.791.79h3.506a.697.697 0 100-1.395h-.829a1 1 0 01-.864-1.502l2.276-3.915A.79.79 0 0036.202 28h-3.505a.697.697 0 100 1.395h.826a1 1 0 01.865 1.502l-2.275 3.915a.79.79 0 00-.107.397z"/>
</svg>
